X: 14540
T: Gan Ainm
R: jig
M: 6/8
K: Dmajor
A2d dcd|e2d =c2e|d2=c A2d|=c2A G2B|
A2G E2A|G2E D2=F|E2D C2E|D2C A,3:|
A,<DD DCD|E2D C2E|E=FE EFE|
E=FE C2A|AB=c GEC|D3D3:|

